X:1
T:Sechs Lieder von Goethe
T:Mailied
T:Moritz Hauptmann Text: Johann Wolfgang von Goethe
T:Mailied
T:Op. 25, No. 3
T:CPDL   —   Creative Commons Attribution Non Commercial 3.0
T:CPDL   —   Creative Commons Attribution Non Commercial 3.0
T:CPDL   —   Creative Commons Attribution Non Commercial 3.0
T:CPDL   —   Creative Commons Attribution Non Commercial 3.0
T:CPDL   —   Creative Commons Attribution Non Commercial 3.0
T:CPDL   —   Creative Commons Attribution Non Commercial 3.0
T:CPDL   —   Creative Commons Attribution Non Commercial 3.0
T:CPDL   —   Creative Commons Attribution Non Commercial 3.0
T:CPDL   —   Creative Commons Attribution Non Commercial 3.0
T:CPDL   —   Creative Commons Attribution Non Commercial 3.0
C:Moritz Hauptmann
Z:Johann Wolfgang von Goethe
Z:CPDL   —   Creative Commons Attribution Non Commercial 3.0
%%score [ 1 2 3 4 ]
L:1/8
Q:1/4=120
M:3/4
K:F
V:1 treble nm="Sopran"
V:2 treble nm="Alt"
V:3 treble-8 nm="Tenor"
V:4 bass nm="Bass"
V:1
"^Un poco vivace" z2 | z6 | z2 z2!mf! .A.B | .c2 .A2 .d2 | c4 .c.B | .A2 .c2 .B2 | !>!G4 .c.B | %7
w: ||Zwi- schen|Wei- zen und|Korn, zwis- chen|He- cken und|Dorn, zwi- schen|
 .A2 .c2 .B2 | !>!G4 z2 | A4!<(! c2!<)! |!>(! (c2 B2)!>)! G2 | F4 G2 | A2 z2 z2 | %13
w: Bäu- men und|Gras,|wo geht's|Lieb- * chen?|Sag mir|das!|
 (A2!<(! c2) f2!<)! |!>(! (f2 d2)!>)! B2 | (A3 B) G2 | F4 z2 |"^dol."!p! A4 G2 | (F3 E) F2 | %19
w: Wo _ geht's|Lieb- * chen?|Sag _ mir|das!|Fand mein|Hold- * chen|
 A4 =B2 | c4 z2 | (C2 A2) G2 | (F3 E) F2 | A4 =B2 | c4 z2 | z6 | z2 c2"^cresc." ^c2 | d4 A2 | %28
w: nicht da-|heim;|muss _ das|Gold- * chen|drau- ßen|sein,||muss das|Gold- chen,|
 z2!f! d2 ^d2 | e4 =d2 | (c3 =B) A2 | A4 z2 | d4"^dim." =B2 | G2 z2 z2 | z6 | z2"^dol."!p! c2 G2 | %36
w: muss das|Gold- chen|drau- * ßen|sein,|drau- ßen|sein.||Grünt und|
 d4 G2 | (e3 d) cA | (G3 A^FA | G2) z2 z2 | z6 | z2 c2 G2 | d4 G2 | (e3 d) cA | (G3 A^FA | %45
w: blü- het|schön _ der _|Mai; _ _ _|_||Lieb- chen|zie- het|froh _ und _|frei. _ _ _|
 G2) z2 z2 | z2 d2 G2 | (G3 A) G2 | z2 d2 G2 | G2 c2 _B2 | A4"^cresc." A2 | (A2 d2) c2 | =B4 z2 | %53
w: _|Fand mein|Hold- * chen|nicht da-|heim; muss das|Gold- chen|drau- * ßen|sein,|
 z2!f! =B2 e2 | (e3 d) c2 | f4 d2 | =B4 z2 |!p! !>!c4 G2 | (G3 ^F) G2 | G4!<(! G2!<)! | %60
w: muss das|Gold- * chen|drau- ßen|sein.|Grünt und|blü- * het|schön der|
!>(! G6!>)! | G4 A2 | (c4 A^F | G2) .c2 .G2 | (G3 ^F) G2 | G4!<(! G2!<)! |!>(! G6!>)! | G4 A2 | %68
w: Mai,|schön der|Mai; _ _|_ Lieb- chen|zie- * het|froh und|frei,|froh und|
 (c4 A^F | G2) G2 c2 | (c2 =B2) B2 | z2 G2 c2 | =B4 z2 | z2 G2 _B2 | (B2 A2) A2 | %75
w: frei. _ _|_ Fand mein|Hold- * chen|nicht da-|heim.|Wo geht's|Lieb- * chen,|
"^cresc." z2 A2 c2 | (c2 =B2) B2 | z2 =B2[Q:1/4=110]"^rall." d2 | (d3 c)"^dim." =BA | %79
w: wo geht's|Lieb- * chen,|wo geht's|Lieb- * chen? *|
"^dol." A4 G2 | G4 z2 |[Q:1/4=120]"^a tempo" (G4 ^G2) |"^cresc." (A3 =B) c2 | c4 G2 | %84
w: Sag mir|das!|Fand _|Hold- * chen,|Hold- chen|
 G4"^dim." F2 | E4 z2 | (c2 =B2) A2 |[Q:1/4=110]"^poco riten." G4!<(! c2!<)! | %88
w: nicht da-|heim;|muss _ das|Gold- chen|
!f!!>(! (c3 =B)!>)! AB |[Q:1/4=120]"^a tempo" c4 z2 | z6 | z2 z2!p! .G.A | ._B2 .G2 .c2 | %93
w: drau- * ßen _|sein.||wo sie|reich- te den|
 B4!mf! .A.B | .c2 .A2 .d2 | G4 .A.B | .c2 .A2 .d2 | G4!f! AB | !>!c2 !>!A2 !>!c2 | !>!f4 .F.G | %100
w: Kuss, an dem|Fel- sen beim|Fluss wo sie|reich- te den|Kuss, wo sie|reich- te den|Kuss, je- nen|
 !>!A2 !>!F2 !>!A2 | !>!d4 z2 |!p! .c.c .c2 .c2 | z2 .=B.B .B2 | %104
w: ers- ten im|Gras,|seh' ich et- was!|Ist sie das?|
 z2[Q:1/4=110]"^riten."!<(! _B2 B2!<)! |!>(! B4!>)! z2 |!mf![Q:1/4=100]"^più lento" A4!<(! c2!<)! | %107
w: Ist sie|das?|Fand mein|
!>(! (c2 B2)!>)! G2 | F4 G2 | A2 z2 z2 | (A2!<(! c2) f2!<)! |!>(! (f2 d2)!>)! B2 | (A3 B) G2 | %113
w: Hold- * chen|nicht da-|heim;|muss _ das|Gold- * chen|drau- * ßen|
 F4 z2 |] %114
w: sein.|
V:2
 z2 | z6 | z2 z2!mf! .F.G | .A2 .F2 .B2 | A4 .A.G | .F2 .A2 .G2 | !>!E4 .A.G | .F2 .A2 .G2 | %8
w: ||Zwi- schen|Wei- zen und|Korn, zwis- chen|He- cken und|Dorn, zwi- schen|Bäu- men und|
 !>!E4 z2 | F4!<(! F2!<)! |!>(! F4!>)! D2 | z2 C2 C2 | C2 z2 z2 | F4!<(! F2!<)! |!>(! F4!>)! G2 | %15
w: Gras,|Wo geht's|Lieb- chen,|Sag mir|das!|Wo geht's|Lieb- chen?|
 (F3 G) E2 | F4 z2 |"^dol."!p! F4 E2 | (D3 ^C) D2 | F4 F2 | E4 z2 | (A,2 F2) E2 | (D3 ^C) D2 | %23
w: Sag * mir|das!|Fand mein|Hold- * chen|nicht da-|heim;|muss _ das|Gold- * chen|
 F4 F2 | E4 z2 | z6 | z2 A2"^cresc." G2 | ^F4 A2 |!f! (D2 =B2) A2 | ^G4 =B2 | z2 E2 A2 | %31
w: drau- ßen|sein,||muss das|Gold- chen,|muss _ das|Gold- chen|drau- ßen,|
 (A3 G) F2 | F4 z2 |!pp! !>!E4 E2 | (E3 ^D) E2 | E4!<(! E2!<)! |!>(! F6!>)! | E4 F2 | (E4 ^D2 | %39
w: drau- * ßen|sein.|Grünt und|blü- * het|schön der|Mai;|schön der|Mai; _|
 E2) .E2 .E2 | (E3 ^D) E2 | E4!<(! E2!<)! |!>(! F6!>)! | E4 F2 | (E4 ^D2 | E2) z2 z2 | F4 F2 | %47
w: _ Lieb- chen|zie- * het|froh und|frei,|froh und|frei. _|_|Fand mein|
 (F2 E2) G2 | F4 F2 | E2 E2 G2 | (C2 A2)"^cresc." G2 | ^F4 A2 | D2!f! =B2 A2 | ^G4 =B2 | z2 E2 A2 | %55
w: Hold- * chen|nicht da-|heim; muss das|Gold- * chen|drau- ßen|sein, muss das|Gold- chen,|muss das|
 (A3 G) F2 | F4 z2 |!p! !>!E4 E2 | (E3 ^D) E2 | E4!<(! E2!<)! |!>(! F6!>)! | E4 F2 | (E4 ^D2 | %63
w: drau- * ßen|sein,|Grünt und|blü- * het|schön der|Mai,|schön der|Mai; _|
 E2) .E2 .E2 | (E3 ^D) E2 | E4!<(! E2!<)! |!>(! F6!>)! | E4 F2 | (E4 ^D2 | E2) z2 z2 | F4 F2 | %71
w: _ Lieb- chen|zie- * het|froh und|frei,|froh und|frei. _|_|Fand mein|
 (F2 E2) G2 | F4 F2 | E2 G2 E2 | C4 C2 |"^cresc." A4 ^F2 | D4 D2 | =B4 ^G2 | E4"^dim." C2 | %79
w: Hold- * chen|nicht da-|heim. Wo geht's|Lieb- chen,|wo geht's|Lieb- chen,|wo geht's|Lieb- chen?|
"^dol." F4 F2 | F4 z2 | E6 |"^cresc." ^D4 D2 | E4 E2 | D4"^dim." D2 | C4 z2 | ^D4 D2 | %87
w: Sag mir|das!|Fand|Hold- chen,|Hold- chen|nicht da-|heim;|muss das|
 (E2 G2)!<(! E2!<)! |!f!!>(! D4!>)! D2 | C4 z2 | z6 | z2 z2!p! .E.F | .G2 .E2 .A2 | G4!mf! .F.G | %94
w: Gold- * chen|drau- ßen|sein.||wo sie|reich- te den|Kuss, an dem|
 .A2 .F2 .B2 | E4 .F.G | .A2 .F2 .B2 | E4!f! FG | !>!A2 !>!F2 !>!A2 | !>!A4 .D.E | %100
w: Fel- sen beim|Fluss wo sie|reich- te den|Kuss, wo sie|reich- te den|Kuss, je- nen|
 !>!F2 !>!D2 !>!F2 | !>!F4 z2 |!p! .F.F .F2 .F2 | z2 .F.F .F2 | z2!<(! G2 G2!<)! |!>(! G4!>)! z2 | %106
w: ers- ten im|Gras,|seh' ich et- was!|Ist sie das?|Ist sie|das?|
!mf! F4!<(! F2!<)! |!>(! F4!>)! D2 | z2 C2 C2 | C2 z2 z2 | F4!<(! F2!<)! |!>(! F4!>)! G2 | %112
w: Fand mein|Hold- chen|nicht da-|heim;|muss das|Gold- chen|
 (F3 G) E2 | F4 z2 |] %114
w: drau- * ßen|sein.|
V:3
!mf! .A.B | .c2 .A2 .d2 | c4 z2 | z6 | z2 z2 .A.B | .c2 .A2 .B2 | !>!c4 .A.B | .c2 .A2 .B2 | %8
w: Zwi- schen|Wei- zen und|Korn,||zwis- chen|He- cken und|Dorn, zwi- schen|Bäu- men und|
 !>!c4 z2 | z2!<(! c2 _e2!<)! |!>(! d4!>)! B2 | A4 E2 | F2 A2 c2 | _e4!<(! e2!<)! | %14
w: Gras,|wo geht's|Lieb- chen?|Sag mir|das! Wo geht's|Wo geht's|
!>(! (d2 B2)!>)! d2 | c4 B2 | A4 z2 | z6 | z6 | z2!p! .d2 .G2 | c4 z2 | z6 | z6 | z2 .d2 .G2 | %24
w: Lieb- * chen?|Sag mir|das!|||nicht da-|heim;|||drau- ßen|
 c4 z2 |!mf! (G2 c2) =B2 | A4"^cresc." A2 | (A2 d2) c2 | =B4 z2 | z2!f! =B2 e2 | (e3 d) c2 | %31
w: sein,|fand _ mein|Hold- chen|nicht _ da-|heim;|muss das|Gold- * chen|
 f4 d2 | =B4 z2 |!pp! !>!c4 G2 | (G3 ^F) G2 | G4!<(! G2!<)! |!>(! G6!>)! | G4 A2 | (c4 A^F | %39
w: drau- ßen|sein.|Grünt und|blü- * het|schön der|Mai,|schön der|Mai; _ _|
 G2) .c2 .G2 | (G3 ^F) G2 | G4!<(! G2!<)! |!>(! G6!>)! | G4 A2 | (c4 A^F | G2) G2 c2 | %46
w: _ Lieb chen|zie- * et|froh und|frei,|froh und|frei. _ _|_ Fand mein|
 (c2 =B2) B2 | z2 G2 c2 | (c2 =B2) z2 | z6 | z2 c2"^cresc." ^c2 | d4 A2 | z2!f! d2 ^d2 | e4 =d2 | %54
w: Hold- * chen|nicht da-|heim; _||muss das|Gold- chen,|muss das|Gold- chen|
 (c3 =B) A2 | A4 z2 | d4"^dim." =B2 | G4 z2 | z2 z4 | z2!p! c2 G2 | d4 G2 | (e3 d) cA | (G3 A^FA | %63
w: drau- * ßen|sein,|drau- ßen|sein.||Grünt und|blü- het|schön _ der _|Mai; _ _ _|
 G2) z2 z2 | z6 | z2 c2 G2 | d4 G2 | (e3 d) cA | (G3 A^FA | G2) z2 z2 | z2 d2 G2 | (G3 A) G2 | %72
w: _||Lieb- chen|zie- het|froh _ und _|frei. _ _ _|_|Fand mein|Hold- * chen|
 z2 d2 G2 | c4 z2 | z2 c2 _e2 | (_e2 d2)"^cresc." d2 | z2 d2 f2 | (f2 e2) e2 | z2 e2"^dim." f2 | %79
w: nicht da-|heim.|Wo geht's|Lieb- * chen,|wo geht's|Lieb- * chen?|Sag mir,|
"^dol." d4 d2 | d4 z2 | c6 |"^cresc." (c3 =B) A2 | G4 c2 | (c3 =B)"^dim." AB | c4 z2 | %86
w: Sag mir|das!|Fand|Hold- * chen,|Hold- chen|nicht _ da- *|heim;|
 (A2 =B2) c2 | (c2 G2)!<(! G2!<)! |!f!!>(! G4!>)! F2 | E4!p! .E.F | .G2 .E2 .A2 | G4 z2 | z6 | z6 | %94
w: muss _ das|Gold- * chen|drau- ßen|sein. An dem|Fel- sen beim|Fluss,|||
 z2 z2!mf! .G.A | .B2 .G2 .c2 | A4 .G.A | .B2 .G2!f! .c.B | !>!A2 !>!c2 !>!A2 | !>!d4 .A.G | %100
w: an dem|Fel- sen beim|Fluss wo sie|reich- te, wo sie|reich- te den|Kuss, je- nen|
 !>!F2 !>!A2 !>!F2 | !>!B4 z2 |!p! .A.A .A2 .A2 | z2 ._A.A .A2 | z2!<(! G2 _d2!<)! | %105
w: ers- ten im|Gras,|seh' ich et- was!|Ist sie das?|Ist sie|
!>(! c4!>)! z2 | z2!mf! c2!<(! _e2!<)! |!>(! d4!>)! B2 | A4 =E2 | F2 A2 c2 | _e4!<(! e2!<)! | %111
w: das?|Fand mein|Hold- chen|nicht da-|heim; muss das|Gold- chen,|
!>(! (d2 B2)!>)! d2 | c4 B2 | A4 z2 |] %114
w: Gold- * chen|drau- ßen|sein.|
V:4
!mf! .F,.G, | .A,2 .F,2 .B,2 | A,4 z2 | z6 | z2 z2 .F,.G, | .A,2 .F,2 .G,2 | !>!C,4 .F,.G, | %7
w: Zwi- schen|Wei- zen und|Korn,||zwis- chen|He- cken und|Dorn, zwi- schen|
 .A,2 .F,2 .G,2 | !>!C,4 z2 | F,4!<(! F,2!<)! |!>(! B,,4!>)! B,,2 | C,4 C,2 | F,2 z2 z2 | %13
w: Bäu- men und|Gras,|Wo geht's|Lieb- chen,|Sag mir|das!|
 F,4!<(! A,2!<)! |!>(! B,4!>)! B,,2 | C,4 C,2 | F,,4 z2 | z6 | z6 | z6 | z2!p! .G,2 .C,2 | F,4 z2 | %22
w: Wo geht's|Lieb- chen?|Sag mir|das!||||nicht da-|heim;|
 z6 | z6 | z2 .G,2 .C,2 | .E,2!mf! E,2 G,2 | F,4"^cresc." _E,2 | D,4 ^F,2 | G,2!f! G,2 =F,2 | %29
w: ||drau- ßen|sein, fand mein|Hold- chen|nicht da-|heim; muss das|
 E,4 ^G,2 | A,4 C2 | z2 D,2 F,2 | G,,4 z2 |!pp! !>!C,4 C,2 | C,4 C,2 | C,4!<(! C,2!<)! | %36
w: Gold- chen|drau- ßen,|drau- ßen|sein.|Grünt und|blü- het|schön der|
!>(! =B,,6!>)! | C,4 C,2 | C,6- | C,2 .C,2 .C,2 | C,4 C,2 | C,4!<(! C,2!<)! |!>(! =B,,6!>)! | %43
w: Mai,|schön der|Mai;|_ Lieb- chen|zie- het|froh und|frei,|
 C,4 C,2 | C,6- | C,2 E,2 E,2 | D,2 G,,2 z2 | C,4 E,2 | D,4 G,2 | C,2 C,2 E,2 | F,4"^cresc." _E,2 | %51
w: froh und|frei.|_ Fand mein|Hold- chen|nicht da-|heim, da-|heim; muss das|Gold- chen|
 D,4 ^F,2 | G,4!f! =F,2 | E,4 ^G,2 | A,4 C2 | z2 D,2 F,2 | G,,4 z2 |!p! !>!C,4 C,2 | C,4 C,2 | %59
w: drau- ßen|sein, das|Gold- chen|drau- ßen,|drau- ßen|sein.|Grünt und|blü- het|
 C,4!<(! C,2!<)! |!>(! =B,,6!>)! | C,4 C,2 | C,6- | C,2 .C,2 .C,2 | C,4 C,2 | C,4!<(! C,2!<)! | %66
w: schön der|Mai,|schön der|Mai;|_ Lieb- chen|zie- het|froh und|
!>(! =B,,6!>)! | C,4 C,2 | C,6- | C,2 E,2 E,2 | D,2 G,,2 z2 | C,4 E,2 | (D,2 G,,2) z2 | %73
w: frei,|froh und|frei.|_ Fand mein|Hold- chen|nicht da-|heim. _|
 z2 E,2 C,2 | F,4 F,2 |"^cresc." ^F,4 D,2 | G,4 G,2 | ^G,4 E,2 | A,4"^dim." A,2 |"^dol." =B,4 B,2 | %80
w: Wo geht's|Lieb- chen,|wo geht's|Lieb- chen,|wo geht's|Lieb- chen?|Sag mir|
 =B,4 z2 | C6 |"^cresc." ^F,4 F,2 | G,6- | G,4"^dim." G,2 | A,4 z2 | ^F,4 F,2 | %87
w: das!|Fand|Hold- chen,|nicht|_ da-|heim;|muss das|
 (G,2 E,2)!<(! C,2!<)! |!f!!>(! G,,4!>)! G,,2 | C,4!p! .C,.D, | .E,2 .C,2 .F,2 | E,4 z2 | z6 | z6 | %94
w: Gold- * chen|drau- ßen|sein. An dem|Fel- sen beim|Fluss,|||
 z2 z2!mf! .E,.F, | .G,2 .E,2 .A,2 | F,4 .E,.F, | .G,2 .E,2!f! .A,.G, | !>!F,2 !>!A,2 !>!F,2 | %99
w: an dem|Fel- sen beim|Fluss wo sie|reich- te, wo sie|reich- te den|
 !>!D,4 .F,.E, | !>!D,2 !>!F,2 !>!D,2 | !>!B,,4 z2 |!p! .C,.C, .C,2 .C,2 | z2 .D,.D, .D,2 | %104
w: Kuss, je- nen|ers- ten im|Gras,|seh' ich et- was!|Ist sie das?|
 z2!<(! E,2 E,2!<)! |!>(! E,4!>)! z2 |!mf! F,4!<(! F,2!<)! |!>(! B,,4!>)! B,,2 | C,4 C,2 | %109
w: Ist sie|das?|Fand mein|Hold- chen|nicht da-|
 F,2 z2 z2 | F,4!<(! A,2!<)! |!>(! B,4!>)! B,,2 | C,4 C,2 | F,,4 z2 |] %114
w: heim;|muss das|Gold- chen|drau- ßen|sein.|

